devices/64/input-mouse.svg

<?xml version="1.0" encoding="UTF-8" standalone="no"?>
<!-- Created with Inkscape (http://www.inkscape.org/) -->

<svg
   xmlns:dc="http://purl.org/dc/elements/1.1/"
   xmlns:cc="http://creativecommons.org/ns#"
   xmlns:rdf="http://www.w3.org/1999/02/22-rdf-syntax-ns#"
   xmlns:svg="http://www.w3.org/2000/svg"
   xmlns="http://www.w3.org/2000/svg"
   xmlns:xlink="http://www.w3.org/1999/xlink"
   xmlns:sodipodi="http://sodipodi.sourceforge.net/DTD/sodipodi-0.dtd"
   xmlns:inkscape="http://www.inkscape.org/namespaces/inkscape"
   width="64"
   height="64"
   id="svg13094"
   version="1.1"
   inkscape:version="0.48.3.1 r9886"
   sodipodi:docname="input-mouse.svg">
  <sodipodi:namedview
     id="base"
     pagecolor="#ffffff"
     bordercolor="#666666"
     borderopacity="1.0"
     inkscape:pageopacity="0"
     inkscape:pageshadow="2"
     inkscape:zoom="11.313709"
     inkscape:cx="26.437033"
     inkscape:cy="33.323734"
     inkscape:document-units="px"
     inkscape:current-layer="svg13094"
     showgrid="true"
     inkscape:snap-bbox="true"
     inkscape:bbox-paths="true"
     inkscape:bbox-nodes="true"
     inkscape:snap-bbox-edge-midpoints="true"
     inkscape:snap-bbox-midpoints="true"
     inkscape:object-paths="true"
     inkscape:snap-intersection-paths="true"
     inkscape:object-nodes="true"
     inkscape:snap-smooth-nodes="true"
     inkscape:snap-midpoints="true"
     inkscape:snap-object-midpoints="true"
     inkscape:snap-center="true"
     showguides="true"
     inkscape:guide-bbox="true"
     inkscape:window-width="1920"
     inkscape:window-height="1023"
     inkscape:window-x="-10"
     inkscape:window-y="35"
     inkscape:window-maximized="1"
     inkscape:snap-global="false"
     fit-margin-top="0"
     fit-margin-left="0"
     fit-margin-right="0"
     fit-margin-bottom="0"
     showborder="true"
     inkscape:showpageshadow="false"
     inkscape:snap-page="true">
    <inkscape:grid
       type="xygrid"
       id="grid3075"
       empspacing="5"
       visible="true"
       enabled="true"
       snapvisiblegridlinesonly="true"
       originx="1.6362304e-08px"
       originy="18px" />
  </sodipodi:namedview>
  <defs
     id="defs13096">
    <linearGradient
       id="linearGradient3885">
      <stop
         id="stop3887"
         offset="0"
         style="stop-color:#e3f4ff;stop-opacity:0.58952814;" />
      <stop
         style="stop-color:#acd6f1;stop-opacity:0.15772463;"
         offset="0.5"
         id="stop3889" />
      <stop
         id="stop3891"
         offset="1"
         style="stop-color:#3485c6;stop-opacity:0;" />
    </linearGradient>
    <linearGradient
       id="linearGradient4046">
      <stop
         style="stop-color:#000000;stop-opacity:0.33781362"
         offset="0"
         id="stop4048" />
      <stop
         style="stop-color:#000000;stop-opacity:0;"
         offset="1"
         id="stop4050" />
    </linearGradient>
    <linearGradient
       inkscape:collect="always"
       id="linearGradient4038">
      <stop
         style="stop-color:#ffffff;stop-opacity:0.59318995"
         offset="0"
         id="stop4040" />
      <stop
         style="stop-color:#ffffff;stop-opacity:0;"
         offset="1"
         id="stop4042" />
    </linearGradient>
    <linearGradient
       inkscape:collect="always"
       id="linearGradient4030">
      <stop
         style="stop-color:#000000;stop-opacity:0.36200717"
         offset="0"
         id="stop4032" />
      <stop
         style="stop-color:#000000;stop-opacity:0;"
         offset="1"
         id="stop4034" />
    </linearGradient>
    <linearGradient
       id="linearGradient3845">
      <stop
         style="stop-color:#5c7188;stop-opacity:1;"
         offset="0"
         id="stop3847" />
      <stop
         id="stop3853"
         offset="0.66611719"
         style="stop-color:#e9ecf0;stop-opacity:1;" />
      <stop
         style="stop-color:#a9b8cb;stop-opacity:1;"
         offset="1"
         id="stop3849" />
    </linearGradient>
    <linearGradient
       id="linearGradient4045">
      <stop
         id="stop4047"
         offset="0"
         style="stop-color:#000000;stop-opacity:0.19586296;" />
      <stop
         style="stop-color:#000000;stop-opacity:0.07627667;"
         offset="0.5"
         id="stop4049" />
      <stop
         id="stop4051"
         offset="1"
         style="stop-color:#000000;stop-opacity:0;" />
    </linearGradient>
    <linearGradient
       id="linearGradient3977">
      <stop
         style="stop-color:#000000;stop-opacity:0.27149323;"
         offset="0"
         id="stop3979" />
      <stop
         style="stop-color:#000000;stop-opacity:0.16756272"
         offset="1"
         id="stop3981" />
    </linearGradient>
    <linearGradient
       id="linearGradient3969">
      <stop
         style="stop-color:#ffffff;stop-opacity:0.3012282;"
         offset="0"
         id="stop3971" />
      <stop
         style="stop-color:#ffffff;stop-opacity:0.0734767"
         offset="1"
         id="stop3973" />
    </linearGradient>
    <linearGradient
       id="linearGradient3961">
      <stop
         style="stop-color:#5d7695;stop-opacity:1;"
         offset="0"
         id="stop3963" />
      <stop
         style="stop-color:#3b4655;stop-opacity:1;"
         offset="1"
         id="stop3965" />
    </linearGradient>
    <radialGradient
       inkscape:collect="always"
       xlink:href="#linearGradient4045"
       id="radialGradient4001"
       cx="4.0000005"
       cy="31.120682"
       fx="4.0000005"
       fy="31.120682"
       r="6"
       gradientTransform="matrix(4.0400607e-6,10.333334,0.66666735,-2.6064933e-7,40.252841,-32.333335)"
       gradientUnits="userSpaceOnUse" />
    <linearGradient
       inkscape:collect="always"
       xlink:href="#linearGradient3845"
       id="linearGradient3862"
       gradientUnits="userSpaceOnUse"
       x1="32"
       y1="30"
       x2="32"
       y2="7" />
    <radialGradient
       inkscape:collect="always"
       xlink:href="#linearGradient3961"
       id="radialGradient3903"
       gradientUnits="userSpaceOnUse"
       gradientTransform="matrix(0,1.711514,-1.78125,0,43.785648,-45.536894)"
       cx="32"
       cy="6.6165042"
       fx="32"
       fy="6.6165042"
       r="32" />
    <radialGradient
       inkscape:collect="always"
       xlink:href="#linearGradient3885"
       id="radialGradient3973"
       gradientUnits="userSpaceOnUse"
       gradientTransform="matrix(5.0078144e-7,9.1666663,-4.6666666,2.5494328e-7,163.69653,-28.231195)"
       cx="3.5161297"
       cy="28.220686"
       fx="3.5161297"
       fy="28.220686"
       r="6" />
    <linearGradient
       inkscape:collect="always"
       xlink:href="#linearGradient3977"
       id="linearGradient3986"
       gradientUnits="userSpaceOnUse"
       gradientTransform="matrix(1,0,0,0.50877193,0,31.438596)"
       x1="53"
       y1="64"
       x2="53"
       y2="9" />
    <linearGradient
       inkscape:collect="always"
       xlink:href="#linearGradient3969"
       id="linearGradient3988"
       gradientUnits="userSpaceOnUse"
       gradientTransform="matrix(1,0,0,0.48245614,2,32.622807)"
       x1="12"
       y1="9"
       x2="12"
       y2="64" />
    <linearGradient
       inkscape:collect="always"
       xlink:href="#linearGradient4030"
       id="linearGradient4036"
       x1="34.564732"
       y1="26.962215"
       x2="55.374924"
       y2="38.976986"
       gradientUnits="userSpaceOnUse" />
    <linearGradient
       inkscape:collect="always"
       xlink:href="#linearGradient4038"
       id="linearGradient4044"
       x1="28.8146"
       y1="13.970806"
       x2="28.8146"
       y2="25.203812"
       gradientUnits="userSpaceOnUse" />
    <linearGradient
       inkscape:collect="always"
       xlink:href="#linearGradient4046"
       id="linearGradient4052"
       x1="36.681164"
       y1="18.833557"
       x2="32.431908"
       y2="18.833557"
       gradientUnits="userSpaceOnUse" />
    <linearGradient
       id="linearGradient3994-2-8">
      <stop
         style="stop-color:#ffffff;stop-opacity:0.32902393;"
         offset="0"
         id="stop3997-0-0" />
      <stop
         id="stop4003-9-2"
         offset="0.5"
         style="stop-color:#ffffff;stop-opacity:0.17905624;" />
      <stop
         style="stop-color:#ffffff;stop-opacity:0;"
         offset="1"
         id="stop3999-6-6" />
    </linearGradient>
    <radialGradient
       r="6"
       fy="28.220686"
       fx="3.5161297"
       cy="28.220686"
       cx="3.5161297"
       gradientTransform="matrix(5.0078144e-7,9.1666663,-4.6666666,2.5494328e-7,163.69653,-28.231195)"
       gradientUnits="userSpaceOnUse"
       id="radialGradient3845"
       xlink:href="#linearGradient3994-2-8"
       inkscape:collect="always" />
    <radialGradient
       inkscape:collect="always"
       xlink:href="#linearGradient3994-4"
       id="radialGradient4043-9"
       gradientUnits="userSpaceOnUse"
       gradientTransform="matrix(-4.0400607e-6,10.333334,-0.66666735,-2.6064933e-7,23.747159,-32.333335)"
       cx="4.0000005"
       cy="31.120682"
       fx="4.0000005"
       fy="31.120682"
       r="6" />
    <linearGradient
       id="linearGradient3994-4">
      <stop
         style="stop-color:#c1e6ff;stop-opacity:0.51325148;"
         offset="0"
         id="stop3997-9" />
      <stop
         id="stop4003-6"
         offset="0.5"
         style="stop-color:#acd6f1;stop-opacity:0.15772463;" />
      <stop
         style="stop-color:#3485c6;stop-opacity:0;"
         offset="1"
         id="stop3999-6-3" />
    </linearGradient>
  </defs>
  <metadata
     id="metadata13099">
    <rdf:RDF>
      <cc:Work
         rdf:about="">
        <dc:format>image/svg+xml</dc:format>
        <dc:type
           rdf:resource="http://purl.org/dc/dcmitype/StillImage" />
        <dc:title />
      </cc:Work>
    </rdf:RDF>
  </metadata>
  <path
     id="path3901"
     d="M 6.5,0 C 2.899,0 0,1.388013 0,3.09375 L 0,3.90625 0,57.5 0.09375,57.59375 C 0.0402232,57.753417 0,57.92673 0,58.09375 l 0,2.8125 C 0,62.611986 2.899,64 6.5,64 l 51,0 c 3.601,0 6.5,-1.388014 6.5,-3.09375 l 0,-2.8125 c 0,-0.16702 -0.04022,-0.340333 -0.09375,-0.5 L 64,57.5 64,3.90625 64,3.09375 C 64,1.388013 61.101,0 57.5,0 l -51,0 z"
     style="color:#000000;fill:url(#radialGradient3903);fill-opacity:1;fill-rule:nonzero;stroke:none;stroke-width:2.28571415;marker:none;visibility:visible;display:inline;overflow:visible;enable-background:accumulate"
     inkscape:connector-curvature="0" />
  <path
     id="path3941"
     d="M 6.5,0 C 2.899,0 0,1.388013 0,3.09375 L 0,3.90625 0,57.5 0.09375,57.59375 C 0.0402232,57.753417 0,57.92673 0,58.09375 l 0,2.8125 C 0,62.611986 2.899,64 6.5,64 l 51,0 c 3.601,0 6.5,-1.388014 6.5,-3.09375 l 0,-2.8125 c 0,-0.16702 -0.04022,-0.340333 -0.09375,-0.5 L 64,57.5 64,3.90625 64,3.09375 C 64,1.388013 61.101,0 57.5,0 l -51,0 z"
     style="color:#000000;fill:url(#radialGradient4043-9);fill-opacity:1;fill-rule:nonzero;stroke:none;stroke-width:0.62299293000000000;marker:none;visibility:visible;display:inline;overflow:visible;enable-background:accumulate"
     inkscape:connector-curvature="0" />
  <path
     id="path3971"
     d="M 6.5,0 C 2.899,0 0,1.388013 0,3.09375 L 0,3.90625 0,57.5 0.09375,57.59375 C 0.0402232,57.753417 0,57.92673 0,58.09375 l 0,2.8125 C 0,62.611986 2.899,64 6.5,64 l 51,0 c 3.601,0 6.5,-1.388014 6.5,-3.09375 l 0,-2.8125 c 0,-0.16702 -0.04022,-0.340333 -0.09375,-0.5 L 64,57.5 64,3.90625 64,3.09375 C 64,1.388013 61.101,0 57.5,0 l -51,0 z"
     style="color:#000000;fill:url(#radialGradient3973);fill-opacity:1;fill-rule:nonzero;stroke:none;stroke-width:0.62299293;marker:none;visibility:visible;display:inline;overflow:visible;enable-background:accumulate"
     inkscape:connector-curvature="0" />
  <path
     style="fill:#1f0700;fill-opacity:0.06978802;fill-rule:nonzero"
     d="M 6.5,0 C 4.5972927,0 2.9053782,0.38675065 1.71875,1 L 32,1 62.28125,1 C 61.094622,0.38675065 59.402707,0 57.5,0 L 32,0 z"
     id="path4444"
     inkscape:connector-curvature="0"
     sodipodi:nodetypes="scccscs" />
  <g
     id="g3043"
     inkscape:export-filename="folder.png"
     inkscape:export-xdpi="90"
     inkscape:export-ydpi="90"
     transform="translate(-0.62500009,0.082283)" />
  <g
     id="scalable"
     transform="matrix(1.0385892,0,0,1.0385892,1214.7222,1878.8121)"
     inkscape:label="#g3701"
     style="fill:#ffffff" />
  <path
     style="color:#000000;fill:url(#radialGradient4001);fill-opacity:1;fill-rule:nonzero;stroke:none;stroke-width:0.62299293000000000;marker:none;visibility:visible;display:inline;overflow:visible;enable-background:accumulate"
     d="M 52 0 L 52 64 L 57.5 64 C 57.950125 64 58.388604 63.978785 58.8125 63.9375 C 61.779775 63.648505 64 62.398769 64 60.90625 L 64 58.09375 C 64 57.92673 63.959777 57.753417 63.90625 57.59375 L 64 57.5 L 64 3.90625 L 64 3.09375 C 64 1.388013 61.101 0 57.5 0 L 52 0 z "
     id="rect3931" />
  <g
     id="g3982"
     transform="translate(-1,0)">
    <path
       sodipodi:nodetypes="ccccc"
       inkscape:connector-curvature="0"
       id="rect3950"
       d="m 52,35 2,0 0,29 -2,0 z"
       style="color:#000000;fill:url(#linearGradient3986);fill-opacity:1;fill-rule:nonzero;stroke:none;stroke-width:0.62299293;marker:none;visibility:visible;display:inline;overflow:visible;enable-background:accumulate" />
    <path
       sodipodi:nodetypes="ccccc"
       inkscape:connector-curvature="0"
       id="rect3985"
       d="m 12,36 2,0 0,27.5 -2,0 z"
       style="color:#000000;fill:url(#linearGradient3988);fill-opacity:1;fill-rule:nonzero;stroke:none;stroke-width:0.62299293;marker:none;visibility:visible;display:inline;overflow:visible;enable-background:accumulate" />
  </g>
  <path
     id="path3977"
     d="m 31,0 0,6 -4,0 c -1.108,0 -2,0.892 -2,2 l 0,21 c 0,1.108 0.892,2 2,2 l 4,0 0,5.96875 C 18.586227,36.762608 7.5010991,32.787781 0,26.59375 L 0,29.125 C 8.0223513,35.209919 19.389918,39 32,39 44.610082,39 55.977649,35.209919 64,29.125 l 0,-2.53125 c -7.5011,6.194031 -18.586227,10.168858 -31,10.375 L 33,31 l 4,0 c 1.108,0 2,-0.892 2,-2 L 39,8 C 39,6.892 38.108,6 37,6 l -4,0 0,-6 -2,0 z"
     style="color:#000000;fill:#000000;fill-opacity:0.47759858;fill-rule:nonzero;stroke:none;stroke-width:0.62299293000000000;marker:none;visibility:visible;display:inline;overflow:visible;enable-background:accumulate"
     inkscape:connector-curvature="0" />
  <path
     style="color:#000000;fill:#ffffff;fill-opacity:0.28046596;fill-rule:nonzero;stroke:none;stroke-width:0.62299293000000000;marker:none;visibility:visible;display:inline;overflow:visible;enable-background:accumulate"
     d="M 33 1 L 33 6 L 34 6 L 34 1 L 33 1 z M 38.8125 7.1875 C 38.924027 7.4371215 39 7.7080032 39 8 L 39 29 C 39 30.108 38.108 31 37 31 L 33 31 L 33 36.96875 C 33.335381 36.963181 33.666603 36.94854 34 36.9375 L 34 32 L 38 32 C 39.108 32 40 31.108 40 30 L 40 9 C 40 8.1839968 39.510083 7.4991704 38.8125 7.1875 z M 65 27.59375 C 64.67408 27.862878 64.339267 28.114378 64 28.375 L 64 29.125 C 55.977649 35.209919 44.610082 39 32 39 C 19.908374 39 8.9528724 35.526374 1 29.875 L 1 30.125 C 9.0223513 36.209919 20.389918 40 33 40 C 45.610082 40 56.977649 36.209919 65 30.125 L 65 27.59375 z M 26.1875 30.8125 C 26.49917 31.510083 27.183997 32 28 32 L 31 32 L 31 31 L 27 31 C 26.708003 31 26.437121 30.924027 26.1875 30.8125 z "
     id="rect3843" />
  <rect
     style="color:#000000;fill:url(#linearGradient3862);fill-opacity:1;fill-rule:nonzero;stroke:none;stroke-width:0.62299293;marker:none;visibility:visible;display:inline;overflow:visible;enable-background:accumulate"
     id="rect3860"
     width="10"
     height="23"
     x="27"
     y="7"
     rx="2"
     ry="2" />
  <path
     id="path3865"
     d="m 29,7 c -1.108,0 -2,0.892 -2,2 l 0,19 c 0,1.108 0.892,2 2,2 l 1,0 0,-23 -1,0 z"
     style="color:#000000;fill:url(#linearGradient4044);fill-opacity:1;fill-rule:nonzero;stroke:none;stroke-width:0.62299293000000000;marker:none;visibility:visible;display:inline;overflow:visible;enable-background:accumulate"
     inkscape:connector-curvature="0" />
  <path
     style="color:#000000;fill:url(#linearGradient4052);fill-opacity:1;fill-rule:nonzero;stroke:none;stroke-width:0.62299293000000000;marker:none;visibility:visible;display:inline;overflow:visible;enable-background:accumulate"
     d="m 35,7 c 1.108,0 2,0.892 2,2 l 0,19 c 0,1.108 -0.892,2 -2,2 l -1,0 0,-23 1,0 z"
     id="rect3855"
     inkscape:connector-curvature="0" />
  <path
     style="color:#000000;fill:url(#linearGradient4036);fill-opacity:1;fill-rule:nonzero;stroke:none;stroke-width:0.62299293000000000;marker:none;visibility:visible;display:inline;overflow:visible;enable-background:accumulate"
     d="M 36.65625,7.875 C 36.871477,8.1941016 37,8.5845 37,9 l 0,19 c 0,1.108 -0.892,2 -2,2 l -6,0 C 28.5845,30 28.194102,29.871477 27.875,29.65625 29.194915,30.71558 30.569016,31.684515 32,32.5 40.836556,37.53575 48,35.357985 48,27.65625 48,21.370975 43.213847,13.354103 36.65625,7.875 z"
     id="path3990"
     inkscape:connector-curvature="0"
     sodipodi:nodetypes="csssscssc" />
</svg>

<?xml version="1.0" encoding="UTF-8"?>
<!-- Created with Inkscape (http://www.inkscape.org/) -->
<svg width="64" height="64" version="1.1" xmlns="http://www.w3.org/2000/svg" xmlns:cc="http://creativecommons.org/ns#" xmlns:dc="http://purl.org/dc/elements/1.1/" xmlns:rdf="http://www.w3.org/1999/02/22-rdf-syntax-ns#" xmlns:xlink="http://www.w3.org/1999/xlink">
	<defs>
		<linearGradient id="i">
			<stop stop-color="#cbd9e8" offset="0"/>
			<stop stop-color="#879db5" offset="1"/>
		</linearGradient>
		<radialGradient id="g" cx="32" cy="-8.2699" r="31.938" gradientTransform="matrix(2.6419 0 0 .34442 -52.54 5.8483)" gradientUnits="userSpaceOnUse">
			<stop stop-color="#ffffff" offset="0"/>
			<stop stop-color="#b5c4d5" offset="1"/>
		</radialGradient>
		<linearGradient id="j" x1="32" x2="32" y1="30" y2="7" gradientUnits="userSpaceOnUse">
			<stop stop-color="#313b47" offset="0"/>
			<stop stop-color="#343f4c" offset=".30676"/>
			<stop stop-color="#53667c" offset=".72398"/>
			<stop stop-color="#647589" offset="1"/>
		</linearGradient>
		<radialGradient id="a" cx="14.499" cy="30.629" r="15.995" fx="6.671" fy="14.828" gradientTransform="matrix(2.5031 7.2144e-8 -8.5663e-8 2.9721 -19.404 -46.689)" gradientUnits="userSpaceOnUse" xlink:href="#i"/>
		<radialGradient id="f" cx="4.493" cy="42.315" r="32" fx="17.037" fy="11.747" gradientTransform="matrix(.43652 1.2332e-8 -4.2831e-8 1.5162 -3.3721 -14.125)" gradientUnits="userSpaceOnUse">
			<stop stop-color="#cad7e6" offset="0"/>
			<stop stop-color="#cbdbec" offset="1"/>
		</radialGradient>
		<radialGradient id="e" cx="55.75" cy="45.321" r="15.995" gradientTransform="matrix(1.9365 0 0 3.8137 -52.96 -112.84)" gradientUnits="userSpaceOnUse">
			<stop stop-color="#687c91" stop-opacity=".97647" offset="0"/>
			<stop stop-color="#94a1af" offset="1"/>
		</radialGradient>
		<radialGradient id="d" cx="48" cy="32" r="16" gradientTransform="matrix(1.4375,0,0,2.875,-21,-60)" gradientUnits="userSpaceOnUse">
			<stop stop-color="#5f6d7d" offset="0"/>
			<stop stop-color="#687f99" offset="1"/>
		</radialGradient>
		<radialGradient id="c" cx="55.75" cy="45.321" r="15.995" gradientTransform="matrix(1.9365 0 0 3.8137 -52.96 -112.84)" gradientUnits="userSpaceOnUse">
			<stop stop-color="#5a7b9f" stop-opacity=".97647" offset="0"/>
			<stop stop-color="#89a0ba" offset="1"/>
		</radialGradient>
		<radialGradient id="b" cx="52.351" cy="19.879" r="15.995" fx="52.616" fy="3.8564" gradientTransform="matrix(.50015 -.50015 .81275 .81275 -.34026 32.027)" gradientUnits="userSpaceOnUse">
			<stop stop-color="#172e48" offset="0"/>
			<stop stop-color="#1a3350" stop-opacity="0" offset="1"/>
		</radialGradient>
		<linearGradient id="h" x1="29.522" x2="29.522" y1="8.6689" y2="28.998" gradientUnits="userSpaceOnUse">
			<stop stop-color="#98aec7" offset="0"/>
			<stop stop-color="#d1fff8" stop-opacity="0" offset="1"/>
		</linearGradient>
	</defs>
	<metadata>
		<rdf:RDF>
			<cc:Work rdf:about="">
				<dc:format>image/svg+xml</dc:format>
				<dc:type rdf:resource="http://purl.org/dc/dcmitype/StillImage"/>
				<dc:title/>
			</cc:Work>
		</rdf:RDF>
	</metadata>
	<path d="m6.5 0c-3.601 0-6.5 1.388-6.5 3.0938v0.8125 53.594l0.09375 0.09375c-0.053527 0.15967-0.09375 0.33298-0.09375 0.5v2.8125c0 1.7057 2.899 3.0938 6.5 3.0938h51c3.601 0 6.5-1.388 6.5-3.0938v-2.8125c0-0.16702-0.04022-0.34033-0.09375-0.5l0.09375-0.09375v-53.594-0.8125c0-1.7057-2.899-3.0938-6.5-3.0938z" color="#000000" fill="url(#f)"/>
	<path d="m32 0v64h25.5c3.601 0 6.5-1.388 6.5-3.0938v-2.8125c0-0.16702-0.04022-0.34033-0.09375-0.5l0.09375-0.09375v-53.594-0.8125c0-1.7057-2.899-3.0938-6.5-3.0938z" color="#000000" fill="url(#d)"/>
	<path d="m6.5 0c-3.601 0-6.5 1.388-6.5 3.0938v0.8125 22.688c0.0052427 0.004329 0.0011245 0.003747 0.0058594 0.007812l0.49414-21.695v-1.8125c0-1.7057 2-0.09375 4.5-0.09375h26v-3h-24.5zm-6.4941 26.602-0.0019531 0.13477c0.075324-0.004984 0.13605-0.019617 0.0019531-0.13477zm-0.0019531 0.13477c-0.086278 0.005709-0.1809 0.004595-0.0039062 0.14062l0.0039062-0.14062zm32.996-26.736v6h1v-3h24.5c2.184 0 4.098-1.4855 5.2754-0.70312-0.73805-1.3201-3.257-2.2969-6.2754-2.2969h-24.5zm5.8203 7.1797c0.11293 0.25091 0.17969 0.52638 0.17969 0.82031v21c0 1.108-0.892 2-2 2h-4v5.9688c0.33579-0.0056 0.6662-0.024096 1-0.035156v-4.9336h4c1.108 0 2-0.892 2-2v-21c0-0.81407-0.48477-1.5075-1.1797-1.8203zm-12.641 23.641c0.31276 0.69491 1.0062 1.1797 1.8203 1.1797h3v-1h-4c-0.29393 0-0.5694-0.066759-0.82031-0.17969z" color="#000000" fill="url(#g)"/>
	<g>
		<path d="m7 1c-3.4664 0-5.4148 0.36194-6 1 0 0 13 17 12 33-0.99775 15.964-12.936 25.947-12.99 25.992 0.096214 1.6658 2.9504 3.0078 6.4902 3.0078h25.5v-63z" fill="url(#a)" style="paint-order:normal"/>
		<path d="m57 1c3.4664 0 5.4148 0.36194 6 1 0 0-13 17-12 33 0.99775 15.964 12.936 25.947 12.99 25.992-0.096214 1.6658-2.9504 3.0078-6.4902 3.0078h-25.5v-63z" fill="#95abc3" style="paint-order:normal"/>
	</g>
	<g>
		<path d="m7 1c-3.4664 0-5.4148 0.36194-6 1 0 0 13 17 12 33-0.99775 15.964-12.936 25.947-12.99 25.992 0.096214 1.6658 2.9504 3.0078 6.4902 3.0078h25.5v-63z" fill="url(#a)" style="paint-order:normal"/>
		<path d="m57 1c3.4664 0 5.4148 0.36194 6 1 0 0-13 17-12 33 0.99775 15.964 12.936 25.947 12.99 25.992-0.096214 1.6658-2.9504 3.0078-6.4902 3.0078h-25.5v-63z" fill="url(#c)" style="paint-order:normal"/>
		<path d="m57 1c3.4664 0 5.4148 0.36194 6 1 0 0-13 17-12 33 0.99775 15.964 12.936 25.947 12.99 25.992-0.096214 1.6658-2.9504 3.0078-6.4902 3.0078h-25.5v-63z" fill="url(#e)" style="paint-order:normal"/>
	</g>
	<path d="m57 1c3.4664 0 5.4148 0.36194 6 1 0 0-13 17-12 33 0.99775 15.964 12.936 25.947 12.99 25.992-0.096214 1.6658-2.9504 3.0078-6.4902 3.0078h-25.5v-63z" fill="url(#b)" style="paint-order:normal"/>
	<path d="m31 0v6h-4c-1.108 0-2 0.892-2 2v21c0 1.108 0.892 2 2 2h4v5.9688c-12.414-0.20614-23.499-4.181-31-10.375v2.5312c8.0224 6.0849 19.39 9.875 32 9.875s23.978-3.7901 32-9.875v-2.5312c-7.5011 6.194-18.586 10.169-31 10.375v-5.9688h4c1.108 0 2-0.892 2-2v-21c0-1.108-0.892-2-2-2h-4v-6h-2z" color="#000000" fill="#172b41" fill-opacity=".57215" style="font-variant-east_asian:normal;paint-order:normal"/>
	<rect x="27" y="7" width="10" height="23" rx="2" ry="2" color="#000000" fill="url(#j)"/>
	<path d="m29 7c-1.108 0-2 0.892-2 2v19c0 1.108 0.892 2 2 2h1v-23z" color="#000000" fill="url(#h)"/>
	<path d="m35 7c1.108 0 2 0.892 2 2v19c0 1.108-0.892 2-2 2h-1v-23h1z" color="#000000" fill="#000000" fill-opacity=".14132"/>
</svg>
